public/images/moon.svg

<svg width="26" height="26" viewBox="0 0 26 26" fill="none" xmlns="http://www.w3.org/2000/svg">
<circle cx="13" cy="13" r="13" fill="white"/>
<g clip-path="url(#clip0)">
<path d="M9.40894 16.2732C13.1993 16.2732 16.2716 13.2004 16.2716 9.41004C16.2716 7.73051 15.6665 6.19411 14.6651 5.0011C17.759 5.99431 19.9995 8.8923 19.9995 12.3162C19.9995 16.5604 16.5593 20.0006 12.3151 20.0006C8.8912 20.0006 5.99321 17.7601 5 14.6662C6.19301 15.668 7.72989 16.2732 9.40894 16.2732Z" fill="#FFD93B"/>
<path d="M17.0645 6.28394C18.0923 7.58981 18.71 9.23379 18.71 11.0252C18.71 15.2694 15.2698 18.7097 11.0255 18.7097C9.23411 18.7097 7.59013 18.092 6.28426 17.0642C7.69051 18.8494 9.86664 19.9997 12.3156 19.9997C16.5598 19.9997 20 16.5595 20 12.3152C20 9.86632 18.8497 7.69067 17.0645 6.28394Z" fill="#F4C534"/>
<path d="M8.84606 8L9.63755 9.6046L11.4078 9.86155L10.127 11.1103L10.429 12.8734L8.84606 12.041L7.26259 12.8734L7.56468 11.1103L6.28378 9.86155L8.05408 9.6046L8.84606 8Z" fill="#FFD83B"/>
<path d="M13.3107 7.48657L13.7209 8.31841L14.6387 8.45145L13.9744 9.09886L14.1315 10.0123L13.3107 9.58106L12.4899 10.0123L12.647 9.09886L11.9827 8.45145L12.9006 8.31841L13.3107 7.48657Z" fill="#FFD83B"/>
</g>
<defs>
<clipPath id="clip0">
<rect width="15" height="15" fill="white" transform="translate(5 5)"/>
</clipPath>
</defs>
</svg>

<svg width="26" height="26" fill="none" xmlns="http://www.w3.org/2000/svg"><circle cx="13" cy="13" r="13" fill="#fff"/><g clip-path="url(#clip0)"><path d="M9.409 16.273a6.863 6.863 0 005.256-11.272 7.685 7.685 0 01-2.35 15A7.685 7.685 0 015 14.666a6.833 6.833 0 004.409 1.607z" fill="#FFD93B"/><path d="M17.064 6.284a7.638 7.638 0 011.646 4.741 7.684 7.684 0 01-7.685 7.685 7.638 7.638 0 01-4.74-1.646A7.66 7.66 0 0012.314 20 7.684 7.684 0 0020 12.315a7.66 7.66 0 00-2.936-6.031z" fill="#F4C534"/><path d="M8.846 8l.792 1.605 1.77.257-1.281 1.248.302 1.763-1.583-.832-1.583.832.302-1.763-1.281-1.248 1.77-.257L8.846 8zM13.31 7.487l.41.831.919.133-.665.648.158.913-.821-.43-.821.43.157-.913-.664-.648.918-.133.41-.831z" fill="#FFD83B"/></g><defs><clipPath id="clip0"><path fill="#fff" transform="translate(5 5)" d="M0 0h15v15H0z"/></clipPath></defs></svg>
